!!!OTL: MAEDEL MIT DEM ROTHEN MIEDER
!!!ARE: Europa, Mitteleuropa, Deutschland
!!!SCT: F0161
!!!YEM: Copyright 1995, estate of Helmut Schaffrath.
**kern
*ICvox
*Ivox
*M2/4
*k[f#]
*G:
=1
{8g
8b
8b
8dd
=2
8dd
8cc
8cc
8b}
=3
{8a
8a
4a
=4
16g
16b
16dd
16b
4g}
=5
{8g
8b
8b
8dd
=6
8dd
8cc
8cc
8b}
=7
{8a
8a
4a
=8
16g
16b
16dd
16b
4g}
=9
{8g
8ee
8ee
8ee
=10
8ee
8dd
4dd}
=11
{8dd
8cc
8cc
8cc
=12
8cc
8b
4b}
=13
{8a
8a
4a
=14
16g
16b
16dd
16b
8g
8b}
=15
{8a
8a
4a
=16
16g
16b
16dd
16b
4g}
=17
{8g
8ee
8ee
8ee
=18
8ee
8dd
4dd}
=19
{8dd
8cc
8cc
8cc
=20
8cc
8b
4b}
=21
{8a
8a
4a
=22
16g
16b
16dd
16b
8g
8b}
=23
{8a
8a
4a
=24
16g
16b
16dd
16b
4g}
==
!!!AGN: Liebes - Lied
!!!ONB: ESAC (Essen Associative Code) Database: FINK
!!!AMT: simple duple
!!!AIN: vox
!!!EED: Helmut Schaffrath
!!!EEV: 1.0
*-
